X: 1
T: Lullaby
C: Johannes Brahms (Op.49 No.4 1868)
M: 3/4
L: 1/8

K: Eb
GG \
| "Eb"B3 G G2 | B2 z2 GB | e2 d3 c | "Bb7"c2 B2 FG |

| "Bb7"A2 F2 FG | A2 z2 FA | dc B2 d2 | "Eb"e2 z2 "Eb7"EE |

| "Ab"e4 cA | "Eb"B4 GE | "Ab"A2 B2 c2 |"Eb"B4 EE |

| "Ab"e4 cA | "Eb"B4 GE | "Bb7"A2 G2 F2 | "Eb"E4 |]

